X: 337
T:Terry Teehan's
M:4/4
L:1/8
R:Reel
N:Bare - bones version of Mike McGoldrick's version, eg not even
N:attempting to duplicate variations and ornamentation
D:Michael McGoldrick : Fused
Z:Steve Mansfield March 2001
K:Gm
G2GF G2FG | BGFD B,CDF |
G2GF G2FG | BGFD C4 ::
GccB dedc | B2GB FB,DF |
1 GccB dedc | BGFD C4 :|
2 GccB GFDC | B,CCB, C4 ||

